icons/modus-outlined/wifi.svg

<svg xmlns="http://www.w3.org/2000/svg" width="24" height="24" fill="currentColor" viewBox="0 0 24 24">
  <path d="M17.79 12.18C14.34 9.69 9.66004 9.7 6.21004 12.19C5.52004 12.68 5.47004 13.7 6.08004 14.3C6.58004 14.8 7.36004 14.83 7.94004 14.42C10.37 12.72 13.63 12.72 16.06 14.42C16.64 14.83 17.42 14.8 17.92 14.3C18.52 13.7 18.48 12.68 17.79 12.18ZM10.46 15.61C9.61004 16.46 9.61004 17.84 10.46 18.69C11.31 19.54 12.69 19.54 13.54 18.69C14.39 17.84 14.39 16.46 13.54 15.61C12.69 14.76 11.31 14.76 10.46 15.61ZM21.84 8.19C16.13 3.52 7.87004 3.51 2.15004 8.19C1.50004 8.71 1.46004 9.7 2.04004 10.29C2.56004 10.81 3.37004 10.84 3.93004 10.38C8.60004 6.55 15.36 6.55 20.04 10.38C20.61 10.85 21.42 10.81 21.94 10.3C22.53 9.71 22.48 8.72 21.84 8.19Z"/>
</svg>

<svg xmlns="http://www.w3.org/2000/svg" width="24" height="24" fill="currentColor" viewBox="0 0 24 24">
  <path d="M17.79 12.18c-3.45-2.49-8.13-2.48-11.58.01-.69.49-.74 1.51-.13 2.11.5.5 1.28.53 1.86.12 2.43-1.7 5.69-1.7 8.12 0 .58.41 1.36.38 1.86-.12.6-.6.56-1.62-.13-2.12m-7.33 3.43a2.179 2.179 0 0 0 3.08 3.08 2.179 2.179 0 0 0-3.08-3.08m11.38-7.42c-5.71-4.67-13.97-4.68-19.69 0-.65.52-.69 1.51-.11 2.1a1.4 1.4 0 0 0 1.89.09c4.67-3.83 11.43-3.83 16.11 0 .57.47 1.38.43 1.9-.08.59-.59.54-1.58-.1-2.11"/>
</svg>
